X:1
T:Minuet. SenH.132, A
T:Minuet. SenH.132, A
T:in Hand C
C:in Hand C
L:1/8
Q:1/4=100
M:3/4
K:G
V:1 treble 
V:1
 b2 bc'bc' | d'2 g2 a2 | b2 c'bag | f2 ef d2 | g2 gabg | e2 c'2 b2 | agfgab | d6 || d'c'bc'd'c' | %9
 b2 c'2 d'2 | c'babc'b | a2 b2 c'2 | b2 c'bag | d2 g2 b2 | gabc' d'2 | g6 |] %16

